images/clip-to-clipboard.svg

<svg fill="none" height="24" viewBox="0 0 19 24" width="19" xmlns="http://www.w3.org/2000/svg" xmlns:xlink="http://www.w3.org/1999/xlink"><clipPath id="a"><path d="m0 0h19v24h-19z"/></clipPath><g clip-path="url(#a)" fill="#fff"><path d="m12.651 4.47302h-10.39357c-1.269806 0-2.25743 1.05812-2.25743 2.30862v14.90986c0 1.2505.987624 2.3086 2.25743 2.3086h10.39357c1.2228 0 2.2574-1.01 2.2574-2.3086v-14.90986c0-1.2505-.9876-2.30862-2.2574-2.30862zm.8465 17.21848c0 .4809-.3762.8657-.8465.8657h-10.39357c-.4703 0-.84654-.3848-.84654-.8657v-14.90986c0-.48096.37624-.86573.84654-.86573h10.39357c.4703 0 .8465.38477.8465.86573z"/><path d="m15.2847 0h-9.87626c-1.45792 0-2.63366 1.2024-2.63366 2.69339 0 .38477.32921.72144.70545.72144.37623 0 .70544-.33667.70544-.72144 0-.67335.51733-1.2505 1.22277-1.2505h9.87626c1.2698 0 2.3044 1.05811 2.3044 2.35671v15.4389c0 .6733-.5173 1.2024-1.1757 1.2024-.3762 0-.7055.3367-.7055.7214 0 .3848.3293.7215.7055.7215 1.4109 0 2.5866-1.2024 2.5866-2.6453v-15.4389c0-2.06814-1.646-3.7996-3.7153-3.7996z"/></g></svg>

<svg width="19" height="24" viewBox="0 0 19 24" fill="none" xmlns="http://www.w3.org/2000/svg">
<g clip-path="url(#clip0)">
<path d="M12.651 4.47302H2.25743C0.987624 4.47302 0 5.53114 0 6.78164V21.6915C0 22.942 0.987624 24.0001 2.25743 24.0001H12.651C13.8738 24.0001 14.9084 22.9901 14.9084 21.6915V6.78164C14.9084 5.53114 13.9208 4.47302 12.651 4.47302ZM13.4975 21.6915C13.4975 22.1724 13.1213 22.5572 12.651 22.5572H2.25743C1.78713 22.5572 1.41089 22.1724 1.41089 21.6915V6.78164C1.41089 6.30068 1.78713 5.91591 2.25743 5.91591H12.651C13.1213 5.91591 13.4975 6.30068 13.4975 6.78164V21.6915Z" fill="white"/>
<path d="M15.2847 0H5.40844C3.95052 0 2.77478 1.2024 2.77478 2.69339C2.77478 3.07816 3.10399 3.41483 3.48023 3.41483C3.85646 3.41483 4.18567 3.07816 4.18567 2.69339C4.18567 2.02004 4.703 1.44289 5.40844 1.44289H15.2847C16.5545 1.44289 17.5891 2.501 17.5891 3.7996V19.2385C17.5891 19.9118 17.0718 20.4409 16.4134 20.4409C16.0372 20.4409 15.7079 20.7776 15.7079 21.1623C15.7079 21.5471 16.0372 21.8838 16.4134 21.8838C17.8243 21.8838 19 20.6814 19 19.2385V3.7996C19 1.73146 17.354 0 15.2847 0Z" fill="white"/>
</g>
<defs>
<clipPath id="clip0">
<rect width="19" height="24" fill="white"/>
</clipPath>
</defs>
</svg>
